images/ico-02.svg

<svg width="27" height="27" viewBox="0 0 27 27" fill="none" xmlns="http://www.w3.org/2000/svg">
<path d="M21.121 7.62097C18.4658 7.62097 16.2187 9.39123 15.4915 11.8125C15.0115 11.2473 14.2978 10.8871 13.5 10.8871C12.7022 10.8871 11.988 11.2473 11.5085 11.8125C10.7813 9.39123 8.53419 7.62097 5.87904 7.62097C2.63731 7.62097 0 10.2583 0 13.5C0 16.7417 2.63731 19.3791 5.87904 19.3791C9.12077 19.3791 11.7581 16.7417 11.7581 13.5C11.7581 12.5393 12.5394 11.7581 13.5 11.7581C14.4603 11.7581 15.2419 12.5394 15.2419 13.5C15.2419 16.7417 17.8792 19.3791 21.121 19.3791C24.3627 19.3791 27 16.7417 27 13.5C27 10.2583 24.3627 7.62097 21.121 7.62097ZM5.87904 18.508C3.11766 18.508 0.870959 16.2614 0.870959 13.5C0.870959 10.7385 3.1176 8.49188 5.87904 8.49188C8.64048 8.49188 10.8871 10.7385 10.8871 13.5C10.8871 16.2614 8.64043 18.508 5.87904 18.508ZM21.121 18.508C18.3596 18.508 16.1129 16.2614 16.1129 13.5C16.1129 10.7385 18.3595 8.49188 21.121 8.49188C23.8823 8.49188 26.129 10.7385 26.129 13.5C26.129 16.2614 23.8823 18.508 21.121 18.508Z" fill="#010002"/>
</svg>

<svg width="27" height="27" viewBox="0 0 27 27" fill="none" xmlns="http://www.w3.org/2000/svg"><path d="M21.121 7.621a5.887 5.887 0 0 0-5.63 4.191 2.607 2.607 0 0 0-3.982 0 5.887 5.887 0 0 0-5.63-4.191A5.886 5.886 0 0 0 0 13.5a5.886 5.886 0 0 0 5.879 5.88 5.886 5.886 0 0 0 5.88-5.88c0-.96.78-1.742 1.741-1.742.96 0 1.742.781 1.742 1.742a5.886 5.886 0 0 0 5.879 5.88A5.886 5.886 0 0 0 27 13.5a5.886 5.886 0 0 0-5.879-5.879zM5.879 18.508A5.014 5.014 0 0 1 .871 13.5a5.014 5.014 0 0 1 5.008-5.008 5.014 5.014 0 0 1 5.008 5.008 5.014 5.014 0 0 1-5.008 5.008zm15.242 0a5.014 5.014 0 0 1-5.008-5.008 5.014 5.014 0 0 1 5.008-5.008 5.014 5.014 0 0 1 5.008 5.008 5.014 5.014 0 0 1-5.008 5.008z" fill="#010002"/></svg>
